icons/chart-death-rate-increasing_fill.svg

<svg width="48" height="48" viewBox="0 0 48 48" fill="none" xmlns="http://www.w3.org/2000/svg">
<path d="M30 18C31.1046 18 32 17.1046 32 16C32 14.8954 31.1046 14 30 14C28.8954 14 28 14.8954 28 16C28 17.1046 28.8954 18 30 18Z" fill="black"/>
<path d="M38.0695 16.1067C38.0705 17.2702 37.1281 18.2142 35.9645 18.2151C34.801 18.2161 33.857 17.2737 33.8561 16.1101C33.8551 14.9466 34.7976 14.0026 35.9611 14.0017C37.1246 14.0007 38.0686 14.9432 38.0695 16.1067Z" fill="black"/>
<path fill-rule="evenodd" clip-rule="evenodd" d="M27.4615 21.8347C27 21.8347 25.6154 21.3825 25.6154 19.3476C25.6154 18.5425 25.3625 18.1622 25.0569 17.7024C24.59 17.0001 24 16.1125 24 13.243C24 3.58566 42 3.58566 42 13.243C42 16.1125 41.41 17.0001 40.9431 17.7024C40.6375 18.1622 40.3846 18.5425 40.3846 19.3476C40.3846 21.3825 38.5769 21.8347 38.5385 21.8347C38.5 21.8347 37.9231 23.1912 37.9231 24.0956C37.9231 25 35.3077 25 33 25C30.6923 25 28.0769 25 28.0769 24.0956C28.0769 23.1912 27.9231 21.8347 27.4615 21.8347ZM27.6849 19.8248L27.689 19.8344L27.6944 19.8459C28.7743 19.9517 29.3246 20.7757 29.4964 21.0817C29.7214 21.4825 29.8347 21.9096 29.8986 22.21C29.947 22.438 29.9837 22.6761 30.0107 22.9125C30.7989 22.9971 31.8542 23 33 23C34.1836 23 35.2706 22.9969 36.0664 22.9038C36.1431 22.5546 36.2377 22.2402 36.3169 21.9999C36.4077 21.7243 36.5021 21.4764 36.5828 21.2847C36.6217 21.1923 36.6662 21.092 36.7126 20.9993C36.7324 20.9598 36.7731 20.8801 36.8285 20.7913C36.8512 20.755 36.9154 20.6532 37.0136 20.5384C37.0596 20.4847 37.1647 20.3664 37.3236 20.2452C37.3971 20.1892 37.6558 19.9932 38.0558 19.8937L38.0621 19.891C38.1078 19.8716 38.1685 19.8392 38.2224 19.7958C38.2721 19.7559 38.3039 19.7168 38.3254 19.6752C38.3431 19.641 38.3846 19.548 38.3846 19.3476C38.3846 17.8638 39.0422 16.9175 39.3528 16.4705C39.4041 16.3966 39.446 16.3364 39.4738 16.2896C39.6474 15.9981 40 15.3589 40 13.243C40 11.5415 39.2439 10.3101 38.0239 9.4374C36.7446 8.52225 34.9261 8 33 8C31.0739 8 29.2554 8.52225 27.9761 9.4374C26.7561 10.3101 26 11.5415 26 13.243C26 15.3589 26.3526 15.9981 26.5262 16.2896C26.554 16.3364 26.5958 16.3966 26.6472 16.4704C26.9578 16.9174 27.6154 17.8638 27.6154 19.3476C27.6154 19.6272 27.6623 19.7707 27.6849 19.8248Z" fill="black"/>
<path d="M6 41C6 41.5523 6.44772 42 7 42H42V40H8V18H8.87117C10.8868 18 12.8924 18.6123 14.7353 19.8148C16.5811 21.0192 18.2174 22.7864 19.5 25.0011C20.9186 27.4509 22.7615 29.4633 24.9025 30.8604C27.0465 32.2593 29.4283 33.0002 31.8597 33H38.3663L35.2927 36.0748C34.9023 36.4654 34.9024 37.0986 35.293 37.489C35.6836 37.8795 36.3168 37.8793 36.7073 37.4887L41.4873 32.7067C41.8776 32.3162 41.8776 31.6833 41.4873 31.2928L36.7073 26.5108C36.3168 26.1202 35.6836 26.1201 35.293 26.5105C34.9024 26.901 34.9023 27.5341 35.2927 27.9247L38.3667 31H31.8596C29.844 31.0001 27.8383 30.3879 25.9954 29.1854C24.1496 27.981 22.5133 26.2137 21.2308 23.9988C19.8121 21.5492 17.9693 19.5368 15.8282 18.1398C13.6843 16.7409 11.3026 16 8.87115 16H8V6H6V41Z" fill="black"/>
</svg>

<svg
  xmlns="http://www.w3.org/2000/svg"
  width="24"
  height="24"
  viewBox="0 0 24 24"
  fill="none"
  stroke="currentColor"
  stroke-width="2"
  stroke-linecap="round"
  stroke-linejoin="round"
>
  <path d="M30 18a2 2 0 1 0 0-4 2 2 0 0 0 0 4" />
  <path d="M38.07 16.107a2.107 2.107 0 1 1-4.214.003 2.107 2.107 0 0 1 4.213-.003" />
  <path
    fill-rule="evenodd"
    d="M27.462 21.835c-.462 0-1.847-.453-1.847-2.487 0-.805-.252-1.186-.558-1.646C24.59 17 24 16.112 24 13.243c0-9.657 18-9.657 18 0 0 2.87-.59 3.757-1.057 4.46-.305.46-.558.84-.558 1.645 0 2.035-1.808 2.487-1.846 2.487s-.616 1.356-.616 2.26C37.923 25 35.308 25 33 25s-4.923 0-4.923-.904c0-.905-.154-2.261-.616-2.261m.223-2.01.004.01.005.01c1.08.107 1.63.93 1.802 1.237.225.4.339.828.403 1.128.048.228.085.466.112.703.788.084 1.843.087 2.989.087 1.184 0 2.27-.003 3.066-.096a9.756 9.756 0 0 1 .516-1.62 5 5 0 0 1 .13-.285 2.102 2.102 0 0 1 .611-.754c.074-.056.333-.252.733-.351l.006-.003a.7.7 0 0 0 .16-.095.4.4 0 0 0 .103-.12c.018-.035.06-.128.06-.328 0-1.484.657-2.43.968-2.877q.078-.112.12-.181c.174-.292.527-.931.527-3.047 0-1.702-.756-2.933-1.976-3.806C36.744 8.522 34.926 8 33 8s-3.745.522-5.024 1.437C26.756 10.31 26 11.542 26 13.243c0 2.116.353 2.755.526 3.047q.043.07.121.18c.31.447.968 1.394.968 2.878 0 .28.047.423.07.477"
    clip-rule="evenodd"
  />
  <path d="M6 41a1 1 0 0 0 1 1h35v-2H8V18h.871c2.016 0 4.021.612 5.864 1.815 1.846 1.204 3.482 2.971 4.765 5.186 1.419 2.45 3.262 4.462 5.403 5.86C27.047 32.258 29.428 33 31.86 33h6.506l-3.073 3.075a1 1 0 0 0 1.414 1.414l4.78-4.782a1 1 0 0 0 0-1.414l-4.78-4.782a1 1 0 0 0-1.414 1.414L38.367 31H31.86c-2.016 0-4.022-.612-5.865-1.815-1.845-1.204-3.482-2.971-4.764-5.186-1.419-2.45-3.262-4.462-5.403-5.86C13.684 16.742 11.303 16 8.871 16H8V6H6z" />
</svg>
